outputs/icons/alert/warning_outline_round.svg

<svg width="1200" height="1200" viewBox="0 0 1200 1200" fill="none" xmlns="http://www.w3.org/2000/svg"><g clip-path="url(#clip0_223_2049)"><path d="M600 299.509L976.5 950.01H223.5L600 299.509ZM137 900.01C98.5 966.51 146.5 1050.01 223.5 1050.01H976.5C1053.5 1050.01 1101.5 966.51 1063 900.01L686.5 249.509C648 183.009 552 183.009 513.5 249.509L137 900.01ZM550 550.01V650.01C550 677.51 572.5 700.01 600 700.01C627.5 700.01 650 677.51 650 650.01V550.01C650 522.51 627.5 500.01 600 500.01C572.5 500.01 550 522.51 550 550.01ZM550 800.01H650V900.01H550V800.01Z" fill="black"/></g><defs><clipPath id="clip0_223_2049"><path width="24" fill="white" d="M0 0H1200V1200H0V0z"/></clipPath></defs></svg>

<svg xmlns="http://www.w3.org/2000/svg" width="1200" height="1200" fill="none"><g clip-path="url(#a)"><path fill="#000" d="M600 299.509 976.5 950.01h-753zM137 900.01c-38.5 66.5 9.5 150 86.5 150h753c77 0 125-83.5 86.5-150L686.5 249.509c-38.5-66.5-134.5-66.5-173 0zm413-350v100c0 27.5 22.5 50 50 50s50-22.5 50-50v-100c0-27.5-22.5-50-50-50s-50 22.5-50 50m0 250h100v100H550z"/></g><defs><clipPath id="a"><path fill="#fff" d="M0 0h1200v1200H0z"/></clipPath></defs></svg>
